lib/brands/icons/google-search-ads.svg

<svg xmlns="http://www.w3.org/2000/svg" fill="none" aria-hidden="true" viewBox="0 0 48 48"><g id="google-search-ads-Icon"><g id="Group"><path id="Vector" fill="#1A73E8" d="M40.3908 34.488L35.0018 29.0375L28.8574 35.2675L34.2464 40.718C35.9255 42.4152 38.6621 42.4287 40.3578 40.7496C40.3683 40.7391 40.3788 40.7286 40.3893 40.718C42.1105 38.9953 42.1105 36.2077 40.3908 34.488Z"/><path id="Vector_2" fill="#669DF3" d="M32.7835 10.5982C26.6361 4.46727 16.6858 4.46727 10.5368 10.5982C4.76639 16.8027 4.93761 26.4601 10.9258 32.4559C16.9141 38.4516 26.5715 38.6364 32.7835 32.8749C38.9355 26.7245 38.9355 16.7501 32.7835 10.5982ZM26.5926 26.6854C23.8275 29.2147 19.5605 29.1201 16.9096 26.4707C14.2586 23.8212 14.161 19.5557 16.6873 16.7877C19.4523 14.2584 23.7193 14.353 26.3703 17.0024C29.0227 19.6519 29.1203 23.9174 26.5926 26.6854Z"/></g></g></svg>

<svg xmlns="http://www.w3.org/2000/svg" fill="none" aria-hidden="true" viewBox="0 0 48 48"><path fill="#1A73E8" d="m40.39 34.488-5.388-5.45-6.145 6.23 5.39 5.45a4.32 4.32 0 0 0 6.11.032l.032-.032a4.405 4.405 0 0 0 .002-6.23Z"/><path fill="#669DF3" d="M32.783 10.598c-6.147-6.13-16.097-6.13-22.246 0-5.77 6.205-5.6 15.862.389 21.858 5.988 5.996 15.646 6.18 21.857.419 6.152-6.15 6.152-16.125 0-22.277Zm-6.19 16.087a7.008 7.008 0 0 1-9.906-9.897 7.008 7.008 0 0 1 9.683.214 7.007 7.007 0 0 1 .223 9.683Z"/></svg>
